the-girl.svg

<svg width="96" height="128" viewBox="0 0 6 8" xmlns="http://www.w3.org/2000/svg"><path d="m3 0 1 1-1 1-1-1m-1 1 1 1-1 1-1-1m5-1 1 1-1 1-1-1m-1 1 1 1-2 2 1 1 1-1-2-2"/></svg>

<svg viewBox="0 0 6 8" xmlns="http://www.w3.org/2000/svg"><path d="M3 0L4 1 3 2 2 1M1 2L2 3 1 4 0 3M5 2L6 3 5 4 4 3M3 4L4 5 2 7 3 8 4 7 2 5"/></svg>
